!!!!SEGMENT: pl-kk--kk-i-70--001-004_anonim--missa-5ta-agnus-dei.krn
!!!cenid: 17xx:2296
!!!COM: Anonim
!!!COM-rismid: pe30004985
!!!CDT:
!!!CNT:
!!!OPR: Missa 5ta
!!!OTL: Agnus Dei
!!!OMV: 004
!!!PDT:
!!!AGN: Sacred; Mass
!!!SMS-siglum: PL-Kk
!!!SMS-shelfmark: Kk.I.70
!!!SMS-shelfwork: 001-004 M
!!!SMS-variant: Baſso PL-Kk KK.I.70:0018
!!!SMS-altvar: Baſso PL-Kk KK.I.70:0023
!!!NIFC-rismid: 1001154791
!!!URL-scan: http://repozytorium.nifc.pl/skany/pl-kk-nut--i-70
!!!ONB-nifc: UWAGA: w zbiorze Msza 5ta i 6ta. Części Mszy: 1. Kyrie, 2. Et in terra, 3. Sanctus, 4. Agnus Dei
!!!AIN: 1 alto 1 empty 1 tenor 1 vox
!!!key:
**kern	**text	**dynam	**kern	**text	**dynam	**kern	**text	**dynam	**kern	**text	**dynam
*part4	*part4	*part4	*part3	*part3	*part3	*part2	*part2	*part2	*part1	*part1	*part1
*staff4	*staff4	*	*staff3	*staff3	*	*staff2	*staff2	*	*staff1	*staff1	*
*Iempty	*	*	*Itenor	*	*	*Ialto	*	*	*Ivox	*	*
*I"Baſso	*	*	*I"Tenore	*	*	*I"Alto.	*	*	*I"Canto	*	*
*I'B	*	*	*I'T	*	*	*I'A	*	*	*I'C	*	*
*clefF4	*	*	*clefC4	*	*	*clefC3	*	*	*clefC1	*	*
*k[]	*	*	*k[]	*	*	*k[]	*	*	*k[]	*	*
*C:	*	*	*C:	*	*	*C:	*	*	*C:	*	*
*M3/4	*	*	*M3/4	*	*	*M3/4	*	*	*M3/4	*	*
=1	=1	=1	=1	=1	=1	=1	=1	=1	=1	=1	=1
!LO:TX:a:t=Lente	!	!	!LO:TX:a:t=Lente	!	!	!LO:TX:a:t=Lente	!	!	!LO:TX:a:t=Moderato	!	!
8C/L	A-	.	8c\L	A-	.	8e\L	A-	.	4g\	A-	.
8BB/J	.	.	8d\J	.	.	8f\J	.	.	.	.	.
4C/	.	.	4e\	.	.	4g\	.	.	4cc\	.	.
8BB/L	-gnus	.	8d\L	-gnus	.	8f\L	-gnus	.	4g\	-gnus	.
8C/J	.	.	8c\J	.	.	8e\J	.	.	.	.	.
=2	=2	=2	=2	=2	=2	=2	=2	=2	=2	=2	=2
4G\	De-	.	4c\	De-	.	4e\	De-	.	4g\	De-	.
4GG/	-i	.	4B\	-i	.	4d\	-i	.	4g\	-i	.
4G\	qui	.	4d\	qui	.	4f\	qui	.	4b\	qui	.
=3	=3	=3	=3	=3	=3	=3	=3	=3	=3	=3	=3
4c\	tol-	.	4d\	tol-	.	4f\	tol-	.	4g\	tol-	.
4C/	-lis	.	4c\	-lis	.	4e\	-lis	.	4g\	-lis	.
4C/	pec-	.	4e\	pec-	.	4g\	pec-	.	4g\	pec-	.
=4	=4	=4	=4	=4	=4	=4	=4	=4	=4	=4	=4
2C/	-ca-	.	8e\L	-ca-	.	8g\L	-ca-	.	2g/	-ca-	.
.	.	.	8c\J	.	.	8e\J	.	.	.	.	.
.	.	.	8f\L	.	.	8a\L	.	.	.	.	.
.	.	.	8e\J	.	.	8g\J	.	.	.	.	.
8BB/L	-ta	.	8d\L	-ta	.	8f\L	-ta	.	4g/	-ta	.
8C/J	.	.	8c\J	.	.	8e\J	.	.	.	.	.
=5	=5	=5	=5	=5	=5	=5	=5	=5	=5	=5	=5
4G\	mun-	.	4c\	mun-	.	4e\	mun-	.	4g/	mun-	.
4GG/	-di	.	4B\	-di	.	4d\	-di	.	4g/	-di	.
4r	.	.	4r	.	.	4r	.	.	4r	.	.
!LO:LB:g=original	!	!	!LO:LB:g=original	!	!	!LO:LB:g=original	!	!	!LO:LB:g=original	!	!
=6	=6	=6	=6	=6	=6	=6	=6	=6	=6	=6	=6
!	!	!LO:DY:a:t=p&colon;	!	!	!LO:DY:a:t=p&colon;	!	!	!LO:DY:a:t=p&colon;	!	!	!LO:DY:a:t=p.
8C/L	A-	p	8c\L	A-	p	8e\L	A-	p	4g\	A-	p
8BB/J	.	.	8d\J	.	.	8f\J	.	.	.	.	.
4C/	.	.	4e\	.	.	4g\	.	.	4cc\	.	.
8BB/L	-gnus	.	8d\L	-gnus	.	8f\L	-gnus	.	4g\	-gnus	.
8C/J	.	.	8c\J	.	.	8e\J	.	.	.	.	.
=7	=7	=7	=7	=7	=7	=7	=7	=7	=7	=7	=7
4G\	De-	.	4c\	De-	.	4e\	De-	.	4g\	De-	.
4GG/	-i	.	4B\	-i	.	4d\	-i	.	4g\	-i	.
4G\	qui	.	4d\	qui	.	4f\	qui	.	4b\	qui	.
=8	=8	=8	=8	=8	=8	=8	=8	=8	=8	=8	=8
4c\	tol-	.	4d\	tol-	.	4f\	tol-	.	4g\	tol-	.
4C/	-lis	.	4c\	-lis	.	4e\	-lis	.	4g\	-lis	.
4C/	pec-	.	4e\	pec-	.	4g\	pec-	.	4g\	pec-	.
=9	=9	=9	=9	=9	=9	=9	=9	=9	=9	=9	=9
2C/	-ca-	.	8e\L	-ca-	.	8g\L	-ca-	.	2g/	-ca-	.
.	.	.	8c\J	.	.	8e\J	.	.	.	.	.
.	.	.	8f\L	.	.	8a\L	.	.	.	.	.
.	.	.	8e\J	.	.	8g\J	.	.	.	.	.
8BB/L	-ta	.	8d\L	-ta	.	8f\L	-ta	.	4g/	-ta	.
8C/J	.	.	8c\J	.	.	8e\J	.	.	.	.	.
=10	=10	=10	=10	=10	=10	=10	=10	=10	=10	=10	=10
4G\	mun-	.	4c\	mun-	.	4e\	mun-	.	4g/	mun-	.
4GG/	-di	.	4B\	-di	.	4d\	-di	.	4g/	-di	.
4r	.	.	4r	.	.	4r	.	.	4r	.	.
=11	=11	=11	=11	=11	=11	=11	=11	=11	=11	=11	=11
!	!	!LO:DY:b:rj:t=fo&colon;	!	!	!LO:DY:a	!	!	!LO:DY:a:t=fo	!	!	!LO:DY:a:t=fo
4C/	mi-	f	4c\	mi-	f	4e\	mi-	f	4g\	mi-	f
8B-X\L	.	.	8e\L	.	.	8g\L	.	.	8g\L	.	.
8G\J	.	.	8c\J	.	.	8e\J	.	.	8b-X\J	.	.
!	!	!	!LO:SIC:v:l:s=-se-	!	!	!	!	!	!	!	!
8E\L	-se-	.	8c\L	-re-	.	4g\	-se-	.	8g\L	-se-	.
8C\J	.	.	8e\J	.	.	.	.	.	8cc\J	.	.
!LO:LB:g=original	!	!	!LO:LB:g=original	!	!	!LO:LB:g=original	!	!	!LO:LB:g=original	!	!
=12	=12	=12	=12	=12	=12	=12	=12	=12	=12	=12	=12
*	*	*	*2\right	*	*	*	*	*	*	*	*
4F\	-re-	.	2c\	-re-	.	4a\	-re-	.	4cc\	-re-	.
4E\	.	.	.	.	.	4g\	.	.	4b-X\	.	.
4F\	-re	.	4c\	-re	.	4a\	-re	.	4a\	-re	.
=13	=13	=13	=13	=13	=13	=13	=13	=13	=13	=13	=13
4D\	mi-	.	2d\	mi-	.	4f#X\	mi-	.	4a\	mi-	.
8c\L	.	.	.	.	.	8a\L	.	.	8a\L	.	.
8A\J	.	.	.	.	.	8f#\J	.	.	8cc\J	.	.
8F#X\L	-se-	.	4d\	-se-	.	8a\L	-se-	.	8a\L	-se-	.
8D\J	.	.	.	.	.	8f#\J	.	.	8cc\J	.	.
=14	=14	=14	=14	=14	=14	=14	=14	=14	=14	=14	=14
*	*	*	*	*	*	*	*	*	*2\right	*	*
4G\	-re-	.	4Bn\	-re-	.	4g\	-re-	.	2dd\	-re-	.
4D\	.	.	4A\	.	.	4f\	.	.	.	.	.
4GG/	-re	.	4B\	-re	.	4g\	-re	.	4dd\	-re	.
=15	=15	=15	=15	=15	=15	=15	=15	=15	=15	=15	=15
4GG/	mi-	.	4r	.	.	4r	.	.	4r	.	.
4G\	.	.	4d\	mi-	.	4fn\	mi-	.	4b\	mi-	.
4G\	-se-	.	4d\	-se-	.	4f\	-se-	.	4b\	-se-	.
=16	=16	=16	=16	=16	=16	=16	=16	=16	=16	=16	=16
8E\L	-re-	.	8c\L	-re-	.	8g\L	-re-	.	2g/	-re-	.
8C\J	.	.	8e\J	.	.	8e\J	.	.	.	.	.
8BB\L	.	.	8d\L	.	.	8d\L	.	.	.	.	.
8D\J	.	.	8B\J	.	.	8f\J	.	.	.	.	.
8C\L	-re	.	8e\L	-re	.	8e\L	-re	.	4g/	-re	.
8E\J	.	.	8c\J	.	.	8g\J	.	.	.	.	.
!LO:LB:g=original	!	!	!	!	!	!	!	!	!	!	!
=17	=17	=17	=17	=17	=17	=17	=17	=17	=17	=17	=17
4F\	no-	.	4d\	no-	.	8a\L	no-	.	4a/	no-	.
.	.	.	.	.	.	8f\J	.	.	.	.	.
4G\	.	.	4c\	.	.	4e\	.	.	2g/	.	.
4GG/	.	.	4B\	.	.	4d\	.	.	.	.	.
!	!	!	!LO:LB:g=original	!	!	!LO:LB:g=original	!	!	!LO:LB:g=original	!	!
=18	=18	=18	=18	=18	=18	=18	=18	=18	=18	=18	=18
*	*	*	*	*	*	*2\right	*	*	*	*	*
.	.	.	.	.	.	8qqd/	.	.	.	.	.
2C/	-bis	.	2c\	-bis	.	2e\	-bis	.	2g/	-bis	.
4r	.	.	4r	.	.	4r	.	.	4r	.	.
=19	=19	=19	=19	=19	=19	=19	=19	=19	=19	=19	=19
!	!	!LO:DY:a:t=p&colon;	!	!	!LO:DY:a	!	!	!LO:DY:a:t=p&colon;	!	!	!LO:DY:a
4C/	mi-	p	4c\	mi-	p	4e\	mi-	p	4g\	mi-	p
8B-X\L	.	.	8e\L	.	.	8g\L	.	.	8g\L	.	.
8G\J	.	.	8c\J	.	.	8e\J	.	.	8b-X\J	.	.
8E\L	-se-	.	8c\L	-se-	.	4g\	-se-	.	8g\L	-se-	.
8C\J	.	.	8e\J	.	.	.	.	.	8cc\J	.	.
=20	=20	=20	=20	=20	=20	=20	=20	=20	=20	=20	=20
4F\	-re-	.	2c\	-re-	.	4a\	-re-	.	4cc\	-re-	.
4E\	.	.	.	.	.	4g\	.	.	4b-X\	.	.
4F\	-re	.	4c\	-re	.	4a\	-re	.	4a\	-re	.
=21	=21	=21	=21	=21	=21	=21	=21	=21	=21	=21	=21
4D\	mi-	.	2d\	mi-	.	4f#X\	mi-	.	4a\	mi-	.
8c\L	.	.	.	.	.	8a\L	.	.	8a\L	.	.
8A\J	.	.	.	.	.	8f#\J	.	.	8cc\J	.	.
8F#X\L	-se-	.	4d\	-se-	.	8a\L	-se-	.	8a\L	-se-	.
8D\J	.	.	.	.	.	8f#\J	.	.	8cc\J	.	.
=22	=22	=22	=22	=22	=22	=22	=22	=22	=22	=22	=22
4G\	-re-	.	4Bn\	-re-	.	4g\	-re-	.	2dd\	-re-	.
4D\	.	.	4A\	.	.	4f\	.	.	.	.	.
4GG/	-re	.	4B\	-re	.	4g\	-re	.	4dd\	-re	.
!LO:LB:g=original	!	!	!	!	!	!	!	!	!LO:LB:g=original	!	!
=23	=23	=23	=23	=23	=23	=23	=23	=23	=23	=23	=23
!	!	!LO:DY:b:rj:t=fo	!	!	!	!	!	!LO:DY:a:t=fo	!	!	!
4GG/	mi-	f	4r	.	.	4r	.	f	4r	.	.
!	!	!	!	!	!LO:DY:a:rj:t=fo	!	!	!	!	!	!
4G\	.	.	4d\	mi-	f	4fn\	mi-	.	4b\	mi-	.
4G\	-se-	.	4d\	-se-	.	4f\	-se-	.	4b\	-se-	.
!	!	!	!LO:LB:g=original	!	!	!LO:LB:g=original	!	!	!	!	!
=24	=24	=24	=24	=24	=24	=24	=24	=24	=24	=24	=24
8E\L	-re-	.	8c\L	-re-	.	8g\L	-re-	.	2g/	-re-	.
8C\J	.	.	8e\J	.	.	8e\J	.	.	.	.	.
8BB\L	.	.	8d\L	.	.	8d\L	.	.	.	.	.
8D\J	.	.	8B\J	.	.	8f\J	.	.	.	.	.
8C\L	-re	.	8e\L	-re	.	8e\L	-re	.	4g/	-re	.
8E\J	.	.	8c\J	.	.	8g\J	.	.	.	.	.
=25	=25	=25	=25	=25	=25	=25	=25	=25	=25	=25	=25
4F\	no-	.	4d\	no-	.	8a\L	no-	.	4a/	no-	.
.	.	.	.	.	.	8f\J	.	.	.	.	.
4G\	.	.	4c\	.	.	4e\	.	.	2g/	.	.
4GG/	.	.	4B\	.	.	4d\	.	.	.	.	.
=26	=26	=26	=26	=26	=26	=26	=26	=26	=26	=26	=26
.	.	.	8qqB/	.	.	8qqd/	.	.	.	.	.
2C/	-bis	.	2c\	-bis	.	2e\	-bis	.	2g/	-bis	.
4r	.	.	4r	.	.	4r	.	.	4r	.	.
!LO:LB:g=original	!	!	!LO:LB:g=original	!	!	!LO:LB:g=original	!	!	!LO:LB:g=original	!	!
==27;;	==27	==27	==27;;	==27	==27	==27;;	==27	==27	==27	==27	==27
*M3/4	*	*	*M3/4	*	*	*M3/4	*	*	*M3/4	*	*
4C\	A-	.	4e\	A-	.	4g\	A-	.	4cc\	A-	.
4E\	.	.	4c\	.	.	4e\	.	.	4g\	.	.
4G\	-gnus	.	4d\	-gnus	.	4f\	-gnus	.	4b\	-gnus	.
=28	=28	=28	=28	=28	=28	=28	=28	=28	=28	=28	=28
8c\L	De-	.	8e\L	De-	.	8g\L	De-	.	8cc\L	De-	.
8G\J	.	.	8d\J	.	.	8f\J	.	.	8b\J	.	.
4C/	-i	.	4c\	-i	.	4e\	-i	.	4g/	-i	.
4r	.	.	4r	.	.	4r	.	.	4r	.	.
=29	=29	=29	=29	=29	=29	=29	=29	=29	=29	=29	=29
4G\	qui	.	4d\	qui	.	4f\	qui	.	4b\	qui	.
4G\	tol-	.	4B\	tol-	.	4d\	tol-	.	4dd\	tol-	.
8G\	-lis	.	8c\	-lis	.	8e\	-lis	.	8cc\	-lis	.
8G\	pec-	.	8c\	pec-	.	8e\	pec-	.	8cc\	pec-	.
=30	=30	=30	=30	=30	=30	=30	=30	=30	=30	=30	=30
4G\	-ca-	.	8d\L	-ca-	.	8f\L	-ca-	.	8b\L	-ca-	.
.	.	.	8c\J	.	.	8e\J	.	.	8cc\J	.	.
4GG/	-ta	.	4B\	-ta	.	4d\	-ta	.	4g/	-ta	.
8r	.	.	8r	.	.	8r	.	.	8r	.	.
8G\	pec-	.	8B\	pec-	.	8d\	pec-	.	8g/	pec-	.
!	!	!	!LO:LB:g=original	!	!	!LO:LB:g=original	!	!	!LO:LB:g=original	!	!
=31	=31	=31	=31	=31	=31	=31	=31	=31	=31	=31	=31
4c\	-ca-	.	8c\L	-ca-	.	8e\L	-ca-	.	2g/	-ca-	.
.	.	.	8e\J	.	.	8g\J	.	.	.	.	.
4B\	.	.	4d\	.	.	4f\	.	.	.	.	.
4c\	-ta	.	4c\	-ta	.	4e\	-ta	.	4g/	-ta	.
!LO:LB:g=original	!	!	!	!	!	!	!	!	!	!	!
=32	=32	=32	=32	=32	=32	=32	=32	=32	=32	=32	=32
*2\right	*	*	*	*	*	*	*	*	*	*	*
2G\	mun-	.	2B\	mun-	.	2d\	mun-	.	2g/	mun-	.
4F#X\	.	.	4c\	.	.	4e\	.	.	4a/	.	.
=33	=33	=33	=33	=33	=33	=33	=33	=33	=33	=33	=33
2G\	-di	.	2B\	-di	.	2d\	-di	.	2g/	-di	.
!LO:TX:b:i:t=Dona nobis ut Kyrie	!	!	!LO:TX:b:i:t=Dona nobis ut Kyrie	!	!	!LO:TX:b:i:t=Dona nobis ut Kyrie	!	!	!LO:TX:b:i:t=Dona nobis ut Kyrie	!	!
4r	.	.	4r	.	.	4r	.	.	4r	.	.
!LO:LB:g=original	!	!	!LO:PB:g=original	!	!	!LO:PB:g=original	!	!	!LO:LB:g=original	!	!
==;;	==	==	==;;	==	==	==;;	==	==	==;;	==	==
*-	*-	*-	*-	*-	*-	*-	*-	*-	*-	*-	*-
!!!system-decoration: [(s1,s2,s3,s4)]
!!!ENC: Marta Chmielewska
!!!END: 2021-08-07
!!!ENC: Anastazja Marusiak
!!!END: 2021-07-10
